X:1
T:Kitten Takes Over the House
C:Jo Anne Rocke
M:C|
R:reel
L:1/8
K:G
Ddc |: "G"B2c2 "D7"A2B2 | "G"GD2B,- B,DGD | "C"EC2E GFGE | "D7"DA2D- DABc |
"G"B2G2 "D7"A2F2 | "G"GD2B,-B,DGF | "C"EG2E "D7"FGAD | [1 "G"G4-"D7"Gd-dc:|[2 "G"G4-"D7"Gdef |]
|: "G"g2f2 "Em"g2d2 | "Am"cd2B "D7"AGAB | "Am"cd2B "D7"AdcA | "G"Bd2d- "D7"ddef |
"G"g2f2 "Am"e2d2 | "Bm"ed2c "Em"BAGB | "Am"Ad2A- "D7"AdAB | [1 "G"G2D2Gd"D7"ef:| [2 "G"G4- Gzz2|]
